X: 6371
T: Cassel Light, The
R: jig
M: 6/8
K: Dmajor
|:E3 ~E3|GAB ABd|Bde E3|EDE GAB|AGE DB,D|
E3 ~E3|GAB ABd|Bde d2B|Bcd cAc|B=cc cGE:|
K:Emaj
|:GAB d2e|GAB cde|GAB cde|ABA AGE|
GAB d2e|GAB cde|1 AB2 BAG|ABA AGE:|2 ~f3 fga||
|:bee efe|c2e ~d3|d2B Bc=d|c2A cde def|
[1 ~e3 efe|c2e f2B|B2a gfd|e3 efg:|
[2 c3 cde|B3 Bcd|A2a geg|=gdg gA=c|B=GF||

